resources/svg/object-ungroup.svg

<svg viewBox="0 0 24 24"><path fill="none" stroke="currentColor" stroke-width="2" d="M1 1h3v3H1V1zm12 0h3v3h-3V1zM4 2h9m2 7h5M4 15h9M1 13h3v3H1v-3zm12 0h3v3h-3v-3zM2 4v9m13-9v9m5-5h3v3h-3V8zm-9 14h9M8 20h3v3H8v-3zm12 0h3v3h-3v-3zM9 16v4m13-9v9"/></svg>

<svg xmlns="http://www.w3.org/2000/svg" viewBox="0 0 24 24" fill="currentColor"><path fill="none" stroke="currentColor" stroke-width="2" d="M1,1 L4,1 L4,4 L1,4 L1,1 Z M13,1 L16,1 L16,4 L13,4 L13,1 Z M4,2 L13,2 M15,9 L20,9 M4,15 L13,15 M1,13 L4,13 L4,16 L1,16 L1,13 Z M13,13 L16,13 L16,16 L13,16 L13,13 Z M2,4 L2,13 M15,4 L15,13 M20,8 L23,8 L23,11 L20,11 L20,8 Z M11,22 L20,22 M8,20 L11,20 L11,23 L8,23 L8,20 Z M20,20 L23,20 L23,23 L20,23 L20,20 Z M9,16 L9,20 M22,11 L22,20"/></svg>
